X: 14
T: The Hores is Shouting
N: Derived from pawnee14.krn
O: Oklahoma, U.S.A.
N: from Pawnee Music by Frances Densmore, 1926
Z: transcribed to **kern format by David Huron, August 2000
C: Skidi and Chaui Bands, 1919
L: 1/8
M: 2/4
Q: 1/4=88
K: C clef=bass
%%linebreak <none>
E EE2 | 
E> E (E D)[M:3/4] | 
C2C2z3/ E/[M:2/4] | 
(E/ D) E/ (E D) | 
C2C3/ D/[M:3/4] | 
(D< C)C2C2 | 
(C2A,2)A,3/ D/[M:2/4] | 
(D C) (D C) | 
A,2A,2 | 
A,2A,3/ C/[M:3/4] | 
(C< A,)A,2A,2[M:2/4] | 
A,3E | 
(E D- D) E[M:3/4] | 
(E D- D) E (E D)[M:2/4] | 
C2C3/ D/[M:3/4] | 
(D< C)C2C2 | 
C2A,2A,3/ D/[M:2/4] | 
(D C) (D C) | 
A,2A,2 | 
C2A,3/ C/[M:3/4] | 
(C< A,)A,2A,2[M:2/4] | 
A,2A,2 | 
A,2z2 |]  



